static/assets/img/icons/theme/design/anchor-left-down.svg

<svg height="24" viewBox="0 0 24 24" width="24" xmlns="http://www.w3.org/2000/svg"><g fill="none" fill-rule="evenodd"><path d="m0 0h24v24h-24z" opacity="0"/><circle cx="5" cy="19" fill="#000" opacity=".3" r="3"/><g transform="translate(6 2)"><path d="m0 0h16v16h-16z" opacity="0"/><path d="m9 5v7c0 .5522847-.44771525 1-1 1-.55228475 0-1-.4477153-1-1v-7h-2c-.55228475 0-1-.44771525-1-1 0-.55228475.44771525-1 1-1h6c.5522847 0 1 .44771525 1 1 0 .55228475-.4477153 1-1 1z" fill="#000"/></g></g></svg>

<svg width="24px" height="24px" viewBox="0 0 24 24" version="1.1" xmlns="http://www.w3.org/2000/svg" xmlns:xlink="http://www.w3.org/1999/xlink">
    <title>Icon For Anchor-left-down</title>
    <g stroke="none" stroke-width="1" fill="none" fill-rule="evenodd">
        <rect opacity="0" x="0" y="0" width="24" height="24"></rect>
        <circle fill="#000000" opacity="0.3" cx="5" cy="19" r="3"></circle>
        <g transform="translate(6.000000, 2.000000)">
            <rect opacity="0" x="0" y="0" width="16" height="16"></rect>
            <path d="M9,5 L9,12 C9,12.5522847 8.55228475,13 8,13 L8,13 C7.44771525,13 7,12.5522847 7,12 L7,5 L5,5 C4.44771525,5 4,4.55228475 4,4 L4,4 C4,3.44771525 4.44771525,3 5,3 L11,3 C11.5522847,3 12,3.44771525 12,4 L12,4 C12,4.55228475 11.5522847,5 11,5 L9,5 Z" fill="#000000"></path>
        </g>
    </g>
</svg>
